public/img/assets/icons/weather-conditions/small/snow-showers-night.svg

<svg width="24" height="24" viewBox="0 0 24 24" fill="none" xmlns="http://www.w3.org/2000/svg">
<path d="M10.75 20C10.9489 20 11.1397 20.079 11.2803 20.2197C11.421 20.3603 11.5 20.5511 11.5 20.75C11.5 20.9489 11.421 21.1397 11.2803 21.2803C11.1397 21.421 10.9489 21.5 10.75 21.5C10.5511 21.5 10.3603 21.421 10.2197 21.2803C10.079 21.1397 10 20.9489 10 20.75C10 20.5511 10.079 20.3603 10.2197 20.2197C10.3603 20.079 10.5511 20 10.75 20ZM15.25 20C15.4489 20 15.6397 20.079 15.7803 20.2197C15.921 20.3603 16 20.5511 16 20.75C16 20.9489 15.921 21.1397 15.7803 21.2803C15.6397 21.421 15.4489 21.5 15.25 21.5C15.0511 21.5 14.8603 21.421 14.7197 21.2803C14.579 21.1397 14.5 20.9489 14.5 20.75C14.5 20.5511 14.579 20.3603 14.7197 20.2197C14.8603 20.079 15.0511 20 15.25 20ZM8.50001 19C8.69893 19 8.88969 19.079 9.03034 19.2197C9.171 19.3603 9.25001 19.5511 9.25001 19.75C9.25001 19.9489 9.171 20.1397 9.03034 20.2803C8.88969 20.421 8.69893 20.5 8.50001 20.5C8.3011 20.5 8.11034 20.421 7.96968 20.2803C7.82903 20.1397 7.75001 19.9489 7.75001 19.75C7.75001 19.5511 7.82903 19.3603 7.96968 19.2197C8.11034 19.079 8.3011 19 8.50001 19ZM13 19C13.1989 19 13.3897 19.079 13.5303 19.2197C13.671 19.3603 13.75 19.5511 13.75 19.75C13.75 19.9489 13.671 20.1397 13.5303 20.2803C13.3897 20.421 13.1989 20.5 13 20.5C12.8011 20.5 12.6103 20.421 12.4697 20.2803C12.329 20.1397 12.25 19.9489 12.25 19.75C12.25 19.5511 12.329 19.3603 12.4697 19.2197C12.6103 19.079 12.8011 19 13 19ZM17.5 19C17.6989 19 17.8897 19.079 18.0303 19.2197C18.171 19.3603 18.25 19.5511 18.25 19.75C18.25 19.9489 18.171 20.1397 18.0303 20.2803C17.8897 20.421 17.6989 20.5 17.5 20.5C17.3011 20.5 17.1103 20.421 16.9697 20.2803C16.829 20.1397 16.75 19.9489 16.75 19.75C16.75 19.5511 16.829 19.3603 16.9697 19.2197C17.1103 19.079 17.3011 19 17.5 19V19ZM13.001 6.01801C16.17 6.01801 17.967 8.11501 18.229 10.648H18.309C19.2867 10.6469 20.2248 11.0342 20.9169 11.7247C21.6091 12.4152 21.9987 13.3523 22 14.33C21.9995 14.8143 21.9036 15.2937 21.7177 15.7409C21.5319 16.1881 21.2598 16.5943 20.9169 16.9363C20.5741 17.2783 20.1672 17.5494 19.7196 17.7342C19.2719 17.9189 18.7923 18.0137 18.308 18.013H7.69401C7.20975 18.0137 6.73009 17.9189 6.28245 17.7342C5.8348 17.5494 5.42794 17.2783 5.08509 16.9363C4.74225 16.5943 4.47013 16.1881 4.2843 15.7409C4.09846 15.2937 4.00254 14.8143 4.00201 14.33C4.00267 13.8458 4.09869 13.3665 4.28458 12.9194C4.47048 12.4724 4.74261 12.0663 5.08545 11.7244C5.42828 11.3825 5.8351 11.1114 6.28268 10.9268C6.73026 10.7421 7.20983 10.6474 7.69401 10.648H7.77401C8.03701 8.09801 9.83301 6.01801 13.001 6.01801V6.01801ZM6.58801 2.01001C7.38496 2.05299 8.16042 2.28395 8.85101 2.68401C9.86546 3.26731 10.6462 4.18444 11.06 5.27901C9.07501 5.84001 7.65501 7.28001 7.06601 9.22501L6.99601 9.47101L6.93901 9.70901L6.73301 9.74701C5.60655 9.98564 4.60796 10.632 3.92901 11.562L3.77401 11.477C3.12078 11.1009 2.5598 10.5836 2.13201 9.96301C2.06676 9.86838 2.02413 9.76001 2.00742 9.64628C1.99071 9.53255 2.00036 9.4165 2.03564 9.30709C2.07092 9.19768 2.13087 9.09785 2.21087 9.0153C2.29087 8.93276 2.38877 8.8697 2.49701 8.83101C4.14001 8.24301 5.02501 7.58101 5.53101 6.61501C6.08401 5.56001 6.18601 4.44101 5.81901 2.93801C5.791 2.82414 5.79008 2.7053 5.81632 2.59101C5.84256 2.47672 5.89524 2.37018 5.97012 2.27994C6.04499 2.18969 6.13999 2.11827 6.24747 2.07139C6.35496 2.02451 6.47193 2.00349 6.58901 2.01001H6.58801Z" fill="#D580FF"/>
</svg>

<svg width="24" height="24" fill="none" xmlns="http://www.w3.org/2000/svg"><path d="M10.75 20a.75.75 0 1 1 0 1.5.75.75 0 0 1 0-1.5Zm4.5 0a.75.75 0 1 1 0 1.5.75.75 0 0 1 0-1.5ZM8.5 19a.75.75 0 1 1 0 1.5.75.75 0 0 1 0-1.5Zm4.5 0a.75.75 0 1 1 0 1.5.75.75 0 0 1 0-1.5Zm4.5 0a.75.75 0 1 1 0 1.5.75.75 0 0 1 0-1.5ZM13.001 6.018c3.169 0 4.966 2.097 5.228 4.63h.08A3.687 3.687 0 0 1 22 14.33a3.685 3.685 0 0 1-3.692 3.683H7.694a3.687 3.687 0 0 1-3.692-3.683 3.687 3.687 0 0 1 3.692-3.682h.08c.263-2.55 2.059-4.63 5.227-4.63ZM6.588 2.01a5.058 5.058 0 0 1 2.263.674 5.056 5.056 0 0 1 2.209 2.595C9.075 5.84 7.655 7.28 7.066 9.225l-.07.246-.057.238-.206.038a4.67 4.67 0 0 0-2.804 1.815l-.155-.085a5.062 5.062 0 0 1-1.642-1.514.75.75 0 0 1 .365-1.132c1.643-.588 2.528-1.25 3.034-2.216.553-1.055.655-2.174.288-3.677a.75.75 0 0 1 .77-.928h-.001Z" fill="#D580FF"/></svg>
